X:34
T:Lament of Lady Dundee for her Husband
Z:Jack Campin, http://www.campin.me.uk/
F:Jack Campin's Nine-Note Tunebook
% last edit 03-02-2013
C:Lady John Scott 
S:Thirty Songs by Lady John Scott, 1910
M:2/4
L:1/8
Q:1/4=50
K:GMin
G| B>B BB|AA  A>A|GG   GG |D3
D| G>G Bc|d>d dc |BB   A>A|G3
B| B>B AA|dd  d>d|A>A =B^G|A3
A|^F>F GA|BB  AA |d<B  A>A|G3|]

